img/partners/fitbit.svg

<svg width="119" height="32" viewBox="0 0 119 32" fill="none" xmlns="http://www.w3.org/2000/svg">
<path fill-rule="evenodd" clip-rule="evenodd" d="M17.5098 2.97188C17.5098 4.19523 16.4427 5.24382 15.1978 5.24382C13.953 5.24382 12.8859 4.19523 12.8859 2.97188C12.8859 1.74854 13.953 0.699951 15.1978 0.699951C16.4427 0.699951 17.5098 1.74854 17.5098 2.97188ZM15.1978 7.10797C13.8344 7.10797 12.7674 8.15655 12.7674 9.49641C12.7674 10.8363 13.8344 11.8849 15.1978 11.8849C16.5613 11.8849 17.6283 10.8363 17.6283 9.49641C17.6283 8.0983 16.5613 7.10797 15.1978 7.10797ZM12.7081 15.9044C12.7081 14.5646 13.8344 13.4577 15.1978 13.4577C16.5613 13.4577 17.7469 14.5646 17.6876 15.9044C17.6876 17.2443 16.5613 18.3511 15.1978 18.3511C13.8344 18.3511 12.7081 17.2443 12.7081 15.9044ZM15.1978 19.924C13.8344 19.924 12.7674 20.9726 12.7674 22.3125C12.7674 23.6523 13.8344 24.7009 15.1978 24.7009C16.5613 24.7009 17.6283 23.6523 17.6283 22.3125C17.6283 21.0308 16.5613 19.924 15.1978 19.924ZM12.8859 28.7787C12.8859 27.5554 13.953 26.5068 15.1978 26.5068C16.502 26.5068 17.5098 27.5554 17.5098 28.7787C17.5098 30.0021 16.4427 31.0507 15.1978 31.0507C13.953 31.0507 12.8859 30.0021 12.8859 28.7787ZM21.6001 6.8167C20.1181 6.8167 18.8732 8.04005 18.8732 9.49641C18.8732 10.9528 20.1181 12.1761 21.6001 12.1761C23.0821 12.1761 24.327 10.9528 24.327 9.49641C24.327 8.04005 23.0821 6.8167 21.6001 6.8167ZM18.7546 15.9627C18.7546 14.3898 20.0588 13.1665 21.6001 13.1665C23.1414 13.1665 24.4455 14.3898 24.4455 15.9627C24.4455 17.5356 23.1414 18.7589 21.6001 18.7589C19.9995 18.7589 18.7546 17.4773 18.7546 15.9627ZM21.6001 19.6327C20.1181 19.6327 18.8732 20.8561 18.8732 22.3124C18.8732 23.7688 20.1181 24.9922 21.6001 24.9922C23.0821 24.9922 24.327 23.7688 24.327 22.3124C24.327 20.8561 23.0821 19.6327 21.6001 19.6327ZM25.0383 15.9044C25.0383 14.1568 26.5203 12.8169 28.1802 12.8169C29.84 12.8169 31.2034 14.1568 31.322 15.9044C31.322 17.6521 29.9586 18.9919 28.1802 18.9919C26.4018 18.9919 25.0383 17.5356 25.0383 15.9044ZM8.73632 7.39924C7.61 7.39924 6.66152 8.33132 6.66152 9.43816C6.66152 10.545 7.61 11.4771 8.73632 11.4771C9.86264 11.4771 10.8111 10.545 10.8111 9.43816C10.8111 8.33132 9.92192 7.39924 8.73632 7.39924ZM6.54296 15.9044C6.54296 14.6811 7.49144 13.749 8.73632 13.749C9.9812 13.749 10.9297 14.6811 10.9297 15.9044C10.9297 17.1278 9.9812 18.0599 8.73632 18.0599C7.49144 18.0599 6.54296 17.1278 6.54296 15.9044ZM8.73632 20.2153C7.61 20.2153 6.66152 21.1474 6.66152 22.2542C6.66152 23.361 7.61 24.2931 8.73632 24.2931C9.86264 24.2931 10.8111 23.361 10.8111 22.2542C10.8111 21.1474 9.92192 20.2153 8.73632 20.2153ZM0.377838 15.9627C0.377838 14.9141 1.20776 14.0985 2.2748 14.0985C3.34184 14.0985 4.17176 14.9141 4.17176 15.9627C4.17176 17.0113 3.34184 17.8268 2.2748 17.8268C1.20776 17.8268 0.377838 17.0113 0.377838 15.9627Z" fill="#8C98A4"/>
<path d="M54.9154 11.943C54.6783 11.943 54.5005 12.176 54.5005 12.3508V28.4873C54.5005 28.7204 54.7376 28.8951 54.9154 28.8951H56.8717C57.1088 28.8951 57.2866 28.6621 57.2866 28.4873V12.3508C57.2866 12.1178 57.0495 11.943 56.8717 11.943H54.9154Z" fill="#8C98A4"/>
<path d="M55.9825 5.1272C54.9154 5.1272 54.0855 5.94276 54.0855 6.99135C54.0855 8.03993 54.9154 8.8555 55.9825 8.8555C57.0495 8.8555 57.8794 8.03993 57.8794 6.99135C57.8794 5.94276 56.9902 5.1272 55.9825 5.1272Z" fill="#8C98A4"/>
<path d="M97.0042 11.943C96.7671 11.943 96.5893 12.176 96.5893 12.3508V28.4873C96.5893 28.7204 96.8264 28.8951 97.0042 28.8951H98.9605C99.1976 28.8951 99.3754 28.6621 99.3754 28.4873V12.3508C99.3754 12.1178 99.1383 11.943 98.9605 11.943H97.0042Z" fill="#8C98A4"/>
<path d="M97.9527 5.1272C96.8857 5.1272 96.0558 5.94276 96.0558 6.99135C96.0558 8.03993 96.8857 8.8555 97.9527 8.8555C99.0198 8.8555 99.8497 8.03993 99.8497 6.99135C99.8497 5.94276 99.0198 5.1272 97.9527 5.1272Z" fill="#8C98A4"/>
<path fill-rule="evenodd" clip-rule="evenodd" d="M117.968 27.1283C117.956 27.185 117.926 27.2536 117.853 27.3222C117.853 27.4387 117.73 27.5552 117.483 27.497L117.578 27.606C117.565 27.6107 117.554 27.6135 117.545 27.6135H117.359L117.792 28.1378H118.039L117.578 27.606C117.598 27.5981 117.622 27.5847 117.649 27.5701C117.709 27.5369 117.781 27.497 117.853 27.497C117.977 27.497 117.977 27.3805 117.977 27.2639C117.977 27.216 117.977 27.1681 117.968 27.1283ZM117.112 27.6135V27.4387V26.9144H117.545C117.668 26.9144 117.792 26.9144 117.853 27.0309C117.926 27.0309 117.956 27.0713 117.968 27.1283C117.977 27.0887 117.977 27.0549 117.977 27.0309V26.9144C117.977 26.9144 117.977 26.7979 117.853 26.7979C117.853 26.7979 117.73 26.6814 117.606 26.6814H117.359H116.804V28.1378H117.051V27.6135H117.112Z" fill="#8C98A4"/>
<path fill-rule="evenodd" clip-rule="evenodd" d="M116.033 27.4387C116.033 26.7397 116.685 26.0989 117.397 26.0989C118.167 26.0989 118.76 26.6814 118.76 27.4387C118.76 28.1378 118.108 28.7786 117.397 28.7786C116.685 28.7786 116.033 28.1378 116.033 27.4387ZM116.152 27.4387C116.152 28.1378 116.685 28.6621 117.397 28.6621C118.049 28.6621 118.641 28.1378 118.641 27.4387C118.641 26.7397 118.108 26.2154 117.397 26.2154C116.685 26.2154 116.152 26.7397 116.152 27.4387Z" fill="#8C98A4"/>
<path d="M71.2174 14.5644C71.4546 14.5644 71.6324 14.3314 71.6324 14.1566V12.2342C71.6324 12.0012 71.3953 11.8264 71.2174 11.8264H67.0086V5.65144C67.0086 5.41842 66.7714 5.24365 66.5936 5.24365H64.6374C64.4002 5.24365 64.2224 5.47667 64.2224 5.65144V11.8264H62.1476C61.9105 11.8264 61.7326 12.0595 61.7326 12.2342V14.1566C61.7326 14.3896 61.9698 14.5644 62.1476 14.5644H64.2224V23.8852C64.2224 26.7396 66.1786 28.6038 69.0241 28.6038H71.0989C71.336 28.6038 71.5138 28.3708 71.5138 28.196V26.2736C71.5138 26.0406 71.2767 25.8658 71.0989 25.8658H69.3205C67.957 25.8658 67.0086 24.9337 67.0086 23.4774V14.5062H71.2174V14.5644Z" fill="#8C98A4"/>
<path d="M112.832 14.5644C113.069 14.5644 113.247 14.3314 113.247 14.1566V12.2342C113.247 12.0012 113.01 11.8264 112.832 11.8264H108.623V5.65144C108.623 5.41842 108.386 5.24365 108.208 5.24365H106.252C106.015 5.24365 105.837 5.47667 105.837 5.65144V11.8264H103.762C103.525 11.8264 103.347 12.0595 103.347 12.2342V14.1566C103.347 14.3896 103.584 14.5644 103.762 14.5644H105.837V23.8852C105.837 26.7396 107.793 28.6038 110.639 28.6038H112.713C112.951 28.6038 113.128 28.3708 113.128 28.196V26.2736C113.128 26.0406 112.891 25.8658 112.713 25.8658H110.816C109.453 25.8658 108.505 24.9337 108.505 23.4774V14.5062H112.773L112.832 14.5644Z" fill="#8C98A4"/>
<path d="M42.4666 14.5645V28.3126C42.4666 28.5456 42.7038 28.7204 42.8816 28.7204H44.8378C45.075 28.7204 45.2528 28.4873 45.2528 28.3126V14.5645H49.8766C50.1138 14.5645 50.2916 14.3314 50.2916 14.1567V12.2343C50.2916 12.0013 50.0545 11.8265 49.8766 11.8265H45.2528V8.2147C45.2528 6.75833 46.3198 5.768 47.5647 5.768H49.8766C50.1138 5.768 50.2916 5.53498 50.2916 5.36022V3.43781C50.2916 3.20479 50.0545 3.03003 49.8766 3.03003H47.6833C44.7786 3.03003 42.4666 5.41847 42.4666 8.15644V11.8265H40.3918C40.1547 11.8265 39.9769 12.0595 39.9769 12.2343V14.1567C39.9769 14.3897 40.214 14.5645 40.3918 14.5645H42.4666Z" fill="#8C98A4"/>
<path fill-rule="evenodd" clip-rule="evenodd" d="M84.3183 11.3023C86.6302 11.3023 88.8236 12.2343 90.3649 13.8655C91.9062 15.4966 92.7361 17.7685 92.7361 20.2735C92.7361 26.5067 88.4086 29.303 84.259 29.303C80.0502 29.303 75.782 26.565 75.782 20.2735V3.32136C75.782 3.14659 75.9598 2.91357 76.197 2.91357H78.1532C78.331 2.91357 78.5682 3.08834 78.5682 3.32136V13.5742C79.9316 12.2343 82.125 11.3023 84.3183 11.3023ZM78.5089 20.3317C78.5089 23.4192 80.0502 26.6815 84.259 26.6815C88.4679 26.6815 89.9499 23.4192 90.0092 20.3317C90.0092 16.6034 87.6973 14.0402 84.259 14.0402C80.8208 14.0402 78.5089 16.5452 78.5089 20.3317Z" fill="#8C98A4"/>
</svg>

<svg width="119" height="32" fill="none" xmlns="http://www.w3.org/2000/svg"><path fill-rule="evenodd" clip-rule="evenodd" d="M17.51 2.972c0 1.223-1.067 2.272-2.312 2.272-1.245 0-2.312-1.049-2.312-2.272C12.886 1.749 13.953.7 15.198.7c1.245 0 2.312 1.049 2.312 2.272zm-2.312 4.136c-1.364 0-2.43 1.049-2.43 2.388 0 1.34 1.066 2.389 2.43 2.389 1.363 0 2.43-1.049 2.43-2.389 0-1.398-1.067-2.388-2.43-2.388zm-2.49 8.796c0-1.34 1.126-2.446 2.49-2.446 1.363 0 2.549 1.107 2.49 2.446 0 1.34-1.127 2.447-2.49 2.447-1.364 0-2.49-1.107-2.49-2.447zm2.49 4.02c-1.364 0-2.43 1.049-2.43 2.389 0 1.34 1.066 2.388 2.43 2.388 1.363 0 2.43-1.049 2.43-2.389 0-1.281-1.067-2.388-2.43-2.388zm-2.312 8.855c0-1.224 1.067-2.272 2.312-2.272 1.304 0 2.312 1.048 2.312 2.272 0 1.223-1.067 2.272-2.312 2.272-1.245 0-2.312-1.049-2.312-2.272zM21.6 6.817c-1.482 0-2.727 1.223-2.727 2.68 0 1.456 1.245 2.68 2.727 2.68 1.482 0 2.727-1.224 2.727-2.68 0-1.457-1.245-2.68-2.727-2.68zm-2.845 9.146c0-1.573 1.304-2.796 2.845-2.796 1.541 0 2.845 1.223 2.845 2.796 0 1.573-1.304 2.796-2.845 2.796-1.6 0-2.845-1.282-2.845-2.796zm2.845 3.67c-1.482 0-2.727 1.223-2.727 2.68 0 1.456 1.245 2.68 2.727 2.68 1.482 0 2.727-1.224 2.727-2.68 0-1.457-1.245-2.68-2.727-2.68zm3.438-3.729c0-1.747 1.482-3.087 3.142-3.087s3.023 1.34 3.142 3.087c0 1.748-1.363 3.088-3.142 3.088-1.778 0-3.142-1.456-3.142-3.088zM8.736 7.4c-1.126 0-2.074.932-2.074 2.04 0 1.106.948 2.038 2.074 2.038 1.127 0 2.075-.932 2.075-2.039 0-1.107-.89-2.039-2.075-2.039zm-2.193 8.505c0-1.223.948-2.155 2.193-2.155s2.194.932 2.194 2.155c0 1.224-.949 2.156-2.194 2.156s-2.193-.932-2.193-2.156zm2.193 4.311c-1.126 0-2.074.932-2.074 2.04 0 1.106.948 2.038 2.074 2.038 1.127 0 2.075-.932 2.075-2.039 0-1.107-.89-2.039-2.075-2.039zM.378 15.963c0-1.049.83-1.864 1.897-1.864 1.067 0 1.897.815 1.897 1.864 0 1.048-.83 1.864-1.897 1.864-1.067 0-1.897-.816-1.897-1.864z" fill="#8C98A4"/><path d="M54.915 11.943c-.237 0-.414.233-.414.408v16.136c0 .233.237.408.414.408h1.957c.237 0 .415-.233.415-.408V12.351c0-.233-.237-.408-.415-.408h-1.957zM55.983 5.127c-1.068 0-1.897.816-1.897 1.864 0 1.049.83 1.864 1.897 1.864 1.067 0 1.896-.815 1.896-1.864 0-1.048-.889-1.864-1.896-1.864zM97.004 11.943c-.237 0-.415.233-.415.408v16.136c0 .233.237.408.415.408h1.956c.238 0 .415-.233.415-.408V12.351c0-.233-.237-.408-.415-.408h-1.956zM97.953 5.127c-1.067 0-1.897.816-1.897 1.864 0 1.049.83 1.864 1.897 1.864 1.067 0 1.897-.815 1.897-1.864 0-1.048-.83-1.864-1.897-1.864z" fill="#8C98A4"/><path fill-rule="evenodd" clip-rule="evenodd" d="M117.968 27.128a.367.367 0 0 1-.115.194c0 .117-.123.233-.37.175l.095.109a.103.103 0 0 1-.033.007h-.186l.433.525h.247l-.461-.532c.02-.008.044-.021.071-.036.06-.033.132-.073.204-.073.124 0 .124-.116.124-.233 0-.048 0-.096-.009-.136zm-.856.485V26.914h.433c.123 0 .247 0 .308.117.073 0 .103.04.115.097.009-.04.009-.073.009-.097v-.117s0-.116-.124-.116c0 0-.123-.117-.247-.117h-.802v1.457h.247v-.525h.061z" fill="#8C98A4"/><path fill-rule="evenodd" clip-rule="evenodd" d="M116.033 27.439c0-.7.652-1.34 1.364-1.34.77 0 1.363.582 1.363 1.34 0 .699-.652 1.34-1.363 1.34-.712 0-1.364-.641-1.364-1.34zm.119 0c0 .699.533 1.223 1.245 1.223.652 0 1.244-.524 1.244-1.223 0-.7-.533-1.224-1.244-1.224-.712 0-1.245.525-1.245 1.224z" fill="#8C98A4"/><path d="M71.217 14.564c.238 0 .415-.233.415-.407v-1.923c0-.233-.237-.408-.415-.408H67.01V5.651c0-.233-.238-.407-.415-.407h-1.957c-.237 0-.415.233-.415.407v6.175h-2.074c-.238 0-.415.233-.415.408v1.923c0 .233.237.407.415.407h2.074v9.321c0 2.855 1.957 4.719 4.802 4.719H71.1c.237 0 .415-.233.415-.408v-1.922c0-.233-.237-.408-.415-.408H69.32c-1.363 0-2.311-.932-2.311-2.389v-8.97h4.208v.057zM112.832 14.564c.237 0 .415-.233.415-.407v-1.923c0-.233-.237-.408-.415-.408h-4.209V5.651c0-.233-.237-.407-.415-.407h-1.956c-.237 0-.415.233-.415.407v6.175h-2.075c-.237 0-.415.233-.415.408v1.923c0 .233.237.407.415.407h2.075v9.321c0 2.855 1.956 4.719 4.802 4.719h2.074c.238 0 .415-.233.415-.408v-1.922c0-.233-.237-.408-.415-.408h-1.897c-1.363 0-2.311-.932-2.311-2.389v-8.97h4.268l.059.057zM42.467 14.565v13.748c0 .233.237.407.415.407h1.956c.237 0 .415-.233.415-.407V14.565h4.624c.237 0 .415-.234.415-.408v-1.923c0-.233-.238-.408-.415-.408h-4.624V8.215c0-1.457 1.067-2.447 2.312-2.447h2.312c.237 0 .415-.233.415-.408V3.438c0-.233-.238-.408-.415-.408h-2.194c-2.904 0-5.216 2.388-5.216 5.126v3.67h-2.075c-.237 0-.415.233-.415.408v1.923c0 .233.237.408.415.408h2.075z" fill="#8C98A4"/><path fill-rule="evenodd" clip-rule="evenodd" d="M84.318 11.302c2.312 0 4.506.932 6.047 2.564 1.541 1.63 2.371 3.902 2.371 6.407 0 6.234-4.327 9.03-8.477 9.03-4.209 0-8.477-2.738-8.477-9.03V3.321c0-.174.178-.407.415-.407h1.956c.178 0 .415.174.415.407v10.253c1.364-1.34 3.557-2.272 5.75-2.272zm-5.81 9.03c0 3.087 1.542 6.35 5.751 6.35 4.209 0 5.69-3.263 5.75-6.35 0-3.729-2.312-6.292-5.75-6.292s-5.75 2.505-5.75 6.292z" fill="#8C98A4"/></svg>
